Numix-Circle/48x48/apps/milkytracker.svg

<?xml version="1.0" encoding="UTF-8" standalone="no"?>
<svg
   xmlns:dc="http://purl.org/dc/elements/1.1/"
   xmlns:cc="http://creativecommons.org/ns#"
   xmlns:rdf="http://www.w3.org/1999/02/22-rdf-syntax-ns#"
   xmlns:svg="http://www.w3.org/2000/svg"
   xmlns="http://www.w3.org/2000/svg"
   xmlns:xlink="http://www.w3.org/1999/xlink"
   xmlns:sodipodi="http://sodipodi.sourceforge.net/DTD/sodipodi-0.dtd"
   xmlns:inkscape="http://www.inkscape.org/namespaces/inkscape"
   viewBox="0 0 48 48"
   id="svg2"
   version="1.1"
   inkscape:version="0.48.5 r10040"
   sodipodi:docname="milkytracker.svg"
   inkscape:export-xdpi="240"
   inkscape:export-ydpi="240"
   width="100%"
   height="100%">
  <metadata
     id="metadata61">
    <rdf:RDF>
      <cc:Work
         rdf:about="">
        <dc:format>image/svg+xml</dc:format>
        <dc:type
           rdf:resource="http://purl.org/dc/dcmitype/StillImage" />
        <dc:title />
      </cc:Work>
    </rdf:RDF>
  </metadata>
  <sodipodi:namedview
     pagecolor="#ffffff"
     bordercolor="#666666"
     borderopacity="1"
     objecttolerance="10"
     gridtolerance="10"
     guidetolerance="10"
     inkscape:pageopacity="0"
     inkscape:pageshadow="2"
     inkscape:window-width="1280"
     inkscape:window-height="998"
     id="namedview59"
     showgrid="true"
     inkscape:zoom="8"
     inkscape:cx="-1.0685758"
     inkscape:cy="24.089028"
     inkscape:window-x="0"
     inkscape:window-y="0"
     inkscape:window-maximized="1"
     inkscape:current-layer="svg2">
    <inkscape:grid
       type="xygrid"
       id="grid3014"
       empspacing="5"
       visible="true"
       enabled="true"
       snapvisiblegridlinesonly="true" />
  </sodipodi:namedview>
  <defs
     id="defs4">
    <linearGradient
       id="linearGradient3854">
      <stop
         style="stop-color:#1873ce;stop-opacity:1;"
         offset="0"
         id="stop3856" />
      <stop
         style="stop-color:#1a7de0;stop-opacity:1;"
         offset="1"
         id="stop3858" />
    </linearGradient>
    <linearGradient
       id="linearGradient3781">
      <stop
         style="stop-color:#8dbbeb;stop-opacity:1;"
         offset="0"
         id="stop3783" />
      <stop
         style="stop-color:#9ec5ee;stop-opacity:1;"
         offset="1"
         id="stop3785" />
    </linearGradient>
    <linearGradient
       id="linearGradient3764"
       x1="1"
       x2="47"
       gradientUnits="userSpaceOnUse"
       gradientTransform="matrix(0,-1,1,0,-1.5e-6,47.999998)">
      <stop
         stop-color="#6cb85a"
         stop-opacity="1"
         id="stop7"
         offset="0"
         style="stop-color:#8bbaeb;stop-opacity:1;" />
      <stop
         offset="1"
         stop-color="#79be69"
         stop-opacity="1"
         id="stop9"
         style="stop-color:#9cc4ee;stop-opacity:1;" />
    </linearGradient>
    <clipPath
       id="clipPath-328595451">
      <g
         transform="translate(0,-1004.3622)"
         id="g12">
        <path
           d="m -24 13 c 0 1.105 -0.672 2 -1.5 2 -0.828 0 -1.5 -0.895 -1.5 -2 0 -1.105 0.672 -2 1.5 -2 0.828 0 1.5 0.895 1.5 2 z"
           transform="matrix(15.333333,0,0,11.5,414.99999,878.8622)"
           fill="#1890d0"
           id="path14" />
      </g>
    </clipPath>
    <clipPath
       id="clipPath-333793366">
      <g
         transform="translate(0,-1004.3622)"
         id="g17">
        <path
           d="m -24 13 c 0 1.105 -0.672 2 -1.5 2 -0.828 0 -1.5 -0.895 -1.5 -2 0 -1.105 0.672 -2 1.5 -2 0.828 0 1.5 0.895 1.5 2 z"
           transform="matrix(15.333333,0,0,11.5,414.99999,878.8622)"
           fill="#1890d0"
           id="path19" />
      </g>
    </clipPath>
    <clipPath
       clipPathUnits="userSpaceOnUse"
       id="clipPath3031">
      <rect
         style="opacity:0.67948716;fill:#dc704b;fill-opacity:1;fill-rule:nonzero;stroke:none"
         id="rect3033"
         width="31"
         height="43"
         x="9"
         y="3" />
    </clipPath>
    <linearGradient
       inkscape:collect="always"
       xlink:href="#linearGradient3854"
       id="linearGradient3860"
       x1="1"
       y1="24"
       x2="47"
       y2="24"
       gradientUnits="userSpaceOnUse" />
  </defs>
  <g
     id="g21">
    <path
       d="m 36.31 5 c 5.859 4.062 9.688 10.831 9.688 18.5 c 0 12.426 -10.07 22.5 -22.5 22.5 c -7.669 0 -14.438 -3.828 -18.5 -9.688 c 1.037 1.822 2.306 3.499 3.781 4.969 c 4.085 3.712 9.514 5.969 15.469 5.969 c 12.703 0 23 -10.298 23 -23 c 0 -5.954 -2.256 -11.384 -5.969 -15.469 c -1.469 -1.475 -3.147 -2.744 -4.969 -3.781 z m 4.969 3.781 c 3.854 4.113 6.219 9.637 6.219 15.719 c 0 12.703 -10.297 23 -23 23 c -6.081 0 -11.606 -2.364 -15.719 -6.219 c 4.16 4.144 9.883 6.719 16.219 6.719 c 12.703 0 23 -10.298 23 -23 c 0 -6.335 -2.575 -12.06 -6.719 -16.219 z"
       opacity="0.05"
       id="path23" />
    <path
       d="m 41.28 8.781 c 3.712 4.085 5.969 9.514 5.969 15.469 c 0 12.703 -10.297 23 -23 23 c -5.954 0 -11.384 -2.256 -15.469 -5.969 c 4.113 3.854 9.637 6.219 15.719 6.219 c 12.703 0 23 -10.298 23 -23 c 0 -6.081 -2.364 -11.606 -6.219 -15.719 z"
       opacity="0.1"
       id="path25" />
    <path
       d="m 31.25 2.375 c 8.615 3.154 14.75 11.417 14.75 21.13 c 0 12.426 -10.07 22.5 -22.5 22.5 c -9.708 0 -17.971 -6.135 -21.12 -14.75 a 23 23 0 0 0 44.875 -7 a 23 23 0 0 0 -16 -21.875 z"
       opacity="0.2"
       id="path27" />
  </g>
  <g
     id="g29"
     style="fill:url(#linearGradient3860);fill-opacity:1"
     transform="matrix(0,-1,1,0,0,48)">
    <path
       d="M 24,1 C 36.703,1 47,11.297 47,24 47,36.703 36.703,47 24,47 11.297,47 1,36.703 1,24 1,11.297 11.297,1 24,1 z"
       id="path31"
       style="fill:url(#linearGradient3860);fill-opacity:1"
       inkscape:connector-curvature="0" />
  </g>
  <path
     style="fill:#000000;fill-opacity:0.11764706;fill-rule:evenodd;stroke:none"
     d="m 20,11 0,1 -5,10 0,11 10,6 L 35,33 35,22 33.59375,20.59375 30,17 30,16 20,11 z"
     id="path4051"
     inkscape:connector-curvature="0" />
  <g
     id="g33" />
  <path
     style="fill:#488539;fill-opacity:1;fill-rule:evenodd;stroke:none"
     d="M 14,21.2 24,26.800001 34,21.2 24,15.6 z"
     id="path4191"
     inkscape:connector-curvature="0" />
  <path
     style="fill:#bbe0e0;fill-opacity:1;fill-rule:evenodd;stroke:none"
     d="m 14,21 0,11 10,6 0,-11.2 z"
     id="path4202"
     inkscape:connector-curvature="0"
     sodipodi:nodetypes="ccccc" />
  <path
     style="fill:#85c7c7;fill-opacity:1;fill-rule:evenodd;stroke:none"
     d="m 34,21 -10,6 0,11 10,-6 z"
     id="path4204"
     inkscape:connector-curvature="0"
     sodipodi:nodetypes="ccccc" />
  <g
     id="g55">
    <path
       d="m 40.03 7.531 c 3.712 4.084 5.969 9.514 5.969 15.469 0 12.703 -10.297 23 -23 23 c -5.954 0 -11.384 -2.256 -15.469 -5.969 4.178 4.291 10.01 6.969 16.469 6.969 c 12.703 0 23 -10.298 23 -23 0 -6.462 -2.677 -12.291 -6.969 -16.469 z"
       opacity="0.1"
       id="path57" />
  </g>
  <path
     style="fill:#bbe0e0;fill-opacity:1;stroke:none"
     d="m 24,27 5,-11 5,5 z"
     id="path3803"
     inkscape:connector-curvature="0"
     sodipodi:nodetypes="cccc" />
  <path
     style="fill:#ddefef;fill-opacity:1;stroke:none"
     d="m 14,21 5,-10 10,5 -5,11 z"
     id="path3805"
     inkscape:connector-curvature="0"
     sodipodi:nodetypes="ccccc" />
  <path
     style="fill:#ddefef;fill-opacity:1;stroke:none"
     d="m 34,21 -6,-4 1,-1 z"
     id="path3852"
     inkscape:connector-curvature="0"
     sodipodi:nodetypes="cccc" />
  <path
     style="opacity:0.12820512;fill:#000000;fill-opacity:1;stroke:none"
     d="M 24,27 32.592563,19.588281 29,16 z"
     id="path3807"
     inkscape:connector-curvature="0"
     sodipodi:nodetypes="cccc" />
  <path
     style="fill:#bbe0e0;fill-opacity:1;stroke:none"
     d="m 29,16 0,-1 -10,-5 0,1 z"
     id="path3809"
     inkscape:connector-curvature="0"
     sodipodi:nodetypes="ccccc" />
  <path
     style="fill:#2c4757;fill-opacity:1;stroke:none;opacity:1"
     d="M 32 24.1875 L 26 27.8125 L 26 29.8125 L 28 28.59375 L 28 33.59375 L 30 32.40625 L 30 27.40625 L 32 26.1875 L 32 24.1875 z "
     id="path3864" />
  <path
     style="opacity:1;fill:#2c4757;fill-opacity:1;fill-rule:nonzero;stroke:none"
     d="M 16 24.1875 L 16 25.1875 L 16 26.1875 L 16 31.1875 L 17 31.8125 L 17 26.8125 L 18 27.40625 L 18 32.375 L 19 33 L 20 33.59375 L 20 28.625 L 21 29.21875 L 21 34.1875 L 22 34.8125 L 22 29.8125 L 22 28.8125 L 21 28.21875 L 21 27.21875 L 16 24.1875 z "
     id="rect3894" />
</svg>

<svg xmlns="http://www.w3.org/2000/svg" viewBox="0 0 48 48"><defs><clipPath><g transform="translate(0,-1004.3622)"><path d="m -24 13 c 0 1.105 -0.672 2 -1.5 2 -0.828 0 -1.5 -0.895 -1.5 -2 0 -1.105 0.672 -2 1.5 -2 0.828 0 1.5 0.895 1.5 2 z" transform="matrix(15.333333,0,0,11.5,414.99999,878.8622)" fill="#1890d0"/></g></clipPath><clipPath><g transform="translate(0,-1004.3622)"><path d="m -24 13 c 0 1.105 -0.672 2 -1.5 2 -0.828 0 -1.5 -0.895 -1.5 -2 0 -1.105 0.672 -2 1.5 -2 0.828 0 1.5 0.895 1.5 2 z" transform="matrix(15.333333,0,0,11.5,414.99999,878.8622)" fill="#1890d0"/></g></clipPath><clipPath clipPathUnits="userSpaceOnUse"><rect width="31" height="43" x="9" y="3" opacity="0.679" fill="#dc704b" fill-rule="nonzero" stroke="none" fill-opacity="1"/></clipPath><linearGradient id="linearGradient3860" x1="1" x2="47" gradientUnits="userSpaceOnUse"><stop stop-color="#1873ce" stop-opacity="1"/><stop offset="1" stop-color="#1a7de0" stop-opacity="1"/></linearGradient></defs><g><path d="m 36.31 5 c 5.859 4.062 9.688 10.831 9.688 18.5 c 0 12.426 -10.07 22.5 -22.5 22.5 c -7.669 0 -14.438 -3.828 -18.5 -9.688 c 1.037 1.822 2.306 3.499 3.781 4.969 c 4.085 3.712 9.514 5.969 15.469 5.969 c 12.703 0 23 -10.298 23 -23 c 0 -5.954 -2.256 -11.384 -5.969 -15.469 c -1.469 -1.475 -3.147 -2.744 -4.969 -3.781 z m 4.969 3.781 c 3.854 4.113 6.219 9.637 6.219 15.719 c 0 12.703 -10.297 23 -23 23 c -6.081 0 -11.606 -2.364 -15.719 -6.219 c 4.16 4.144 9.883 6.719 16.219 6.719 c 12.703 0 23 -10.298 23 -23 c 0 -6.335 -2.575 -12.06 -6.719 -16.219 z" opacity="0.05"/><path d="m 41.28 8.781 c 3.712 4.085 5.969 9.514 5.969 15.469 c 0 12.703 -10.297 23 -23 23 c -5.954 0 -11.384 -2.256 -15.469 -5.969 c 4.113 3.854 9.637 6.219 15.719 6.219 c 12.703 0 23 -10.298 23 -23 c 0 -6.081 -2.364 -11.606 -6.219 -15.719 z" opacity="0.1"/><path d="m 31.25 2.375 c 8.615 3.154 14.75 11.417 14.75 21.13 c 0 12.426 -10.07 22.5 -22.5 22.5 c -9.708 0 -17.971 -6.135 -21.12 -14.75 a 23 23 0 0 0 44.875 -7 a 23 23 0 0 0 -16 -21.875 z" opacity="0.2"/></g><g transform="matrix(0,-1,1,0,0,48)" fill="url(#linearGradient3860)" fill-opacity="1"><path d="M 24,1 C 36.703,1 47,11.297 47,24 47,36.703 36.703,47 24,47 11.297,47 1,36.703 1,24 1,11.297 11.297,1 24,1 z"/></g><path d="m 20,11 0,1 -5,10 0,11 10,6 L 35,33 35,22 33.59375,20.59375 30,17 30,16 20,11 z" fill="#000" fill-rule="evenodd" stroke="none" fill-opacity="0.118"/><path d="m 14 21 0 11 10 6 0 -11.2 z" fill="#bbe0e0" fill-rule="evenodd" stroke="none" fill-opacity="1"/><path d="m 34 21 -10 6 0 11 10 -6 z" fill="#85c7c7" fill-rule="evenodd" stroke="none" fill-opacity="1"/><g><path d="m 40.03 7.531 c 3.712 4.084 5.969 9.514 5.969 15.469 0 12.703 -10.297 23 -23 23 c -5.954 0 -11.384 -2.256 -15.469 -5.969 4.178 4.291 10.01 6.969 16.469 6.969 c 12.703 0 23 -10.298 23 -23 0 -6.462 -2.677 -12.291 -6.969 -16.469 z" opacity="0.1"/></g><path d="m 24 27 5 -11 5 5 z" fill="#bbe0e0" stroke="none" fill-opacity="1"/><path d="m 14 21 5 -10 10 5 -5 11 z" fill="#ddefef" stroke="none" fill-opacity="1"/><path d="m 34 21 -6 -4 1 -1 z" fill="#ddefef" stroke="none" fill-opacity="1"/><path d="M 24,27 32.592563,19.588281 29,16 z" opacity="0.128" fill="#000" stroke="none" fill-opacity="1"/><path d="m 29 16 0 -1 -10 -5 0 1 z" fill="#bbe0e0" stroke="none" fill-opacity="1"/><path d="m 32 24.19 l -6 3.625 l 0 2 l 2 -1.219 l 0 5 l 2 -1.188 l 0 -5 l 2 -1.219 l 0 -2 z" opacity="1" fill="#2c4757" stroke="none" fill-opacity="1"/><path d="m 16 24.19 l 0 1 l 0 1 l 0 5 l 1 0.625 l 0 -5 l 1 0.594 l 0 4.969 l 1 0.625 l 1 0.594 l 0 -4.969 l 1 0.594 l 0 4.969 l 1 0.625 l 0 -5 l 0 -1 l -1 -0.594 l 0 -1 l -5 -3.03 z" opacity="1" fill="#2c4757" fill-rule="nonzero" stroke="none" fill-opacity="1"/></svg>
